X: 10142
Q: "Lively."
M: C
L: 1/8
K: A
[|\
[|\
E2 (3(GFE) BE (3(GFE) | BEdE cEBE | A2 (3(cBA) eA (3(cBA) | eAaA gAfA |\
e^dec agaf | e^dec agaf | ecag fedc | BAGF EF"^D.C."GE |]


